X:1
T:Care, Thou Canker of Our Joys
M:C
L:1/8
S:Chappell - Popular Music of the Olden Time  (1859)
Z:AK/Fiddler's Companion
K:Eb
B3c B2e2|B2A2A2G2|E3G G2F2|F3A A2G2|
B3c Bcde|B2A2A2G2|E3G F2 (3FGA|G2F2E4:||

